dist/chrome-logo.svg

<svg height="48" viewBox="0 0 192 192" width="48" xmlns="http://www.w3.org/2000/svg" xmlns:xlink="http://www.w3.org/1999/xlink"><clipPath id="a"><circle cx="96" cy="96" r="88"/></clipPath><linearGradient id="b" gradientUnits="userSpaceOnUse" x1="29.337" x2="81.837" y1="75.021" y2="44.354"><stop offset="0" stop-color="#a52714" stop-opacity=".6"/><stop offset=".66" stop-color="#a52714" stop-opacity="0"/></linearGradient><linearGradient id="c" gradientUnits="userSpaceOnUse" x1="110.872" x2="52.538" y1="164.495" y2="130.329"><stop offset="0" stop-color="#055524" stop-opacity=".4"/><stop offset=".33" stop-color="#055524" stop-opacity="0"/></linearGradient><clipPath id="d"><path d="m8 184h83.77l38.88-38.88v-29.12h-69.29l-53.36-91.52z"/></clipPath><linearGradient id="e" gradientUnits="userSpaceOnUse" x1="121.858" x2="136.547" y1="49.804" y2="114.13"><stop offset="0" stop-color="#ea6100" stop-opacity=".3"/><stop offset=".66" stop-color="#ea6100" stop-opacity="0"/></linearGradient><clipPath id="f"><path d="m96 56 34.65 60-38.88 68h92.23v-128z"/></clipPath><linearGradient id="g"><stop offset="0" stop-color="#3e2723" stop-opacity=".2"/><stop offset="1" stop-color="#3e2723" stop-opacity="0"/></linearGradient><radialGradient id="h" cx="92.176" cy="55.948" gradientUnits="userSpaceOnUse" r="84.078" xlink:href="#g"/><clipPath id="i"><path d="m21.97 8v40.34l39.39 67.66 34.64-60h88v-48z"/></clipPath><radialGradient id="j" cx="21.875" cy="48.52" gradientUnits="userSpaceOnUse" r="78.044" xlink:href="#g"/><radialGradient id="k" cx="95.844" cy="96.138" gradientUnits="userSpaceOnUse" r="87.87"><stop offset="0" stop-color="#263238" stop-opacity=".2"/><stop offset="1" stop-color="#263238" stop-opacity="0"/></radialGradient><radialGradient id="l" cx="34.286" cy="32.014" gradientUnits="userSpaceOnUse" r="176.746"><stop offset="0" stop-color="#fff" stop-opacity=".1"/><stop offset="1" stop-color="#fff" stop-opacity="0"/></radialGradient><g clip-path="url(#a)"><path d="m21.97 8v108h39.39l34.64-60h88v-48z" fill="#db4437"/><path d="m21.97 8v108h39.39l34.64-60h88v-48z" fill="url(#b)"/></g><path clip-path="url(#a)" d="m62.31 115.65-39.83-68.31-.58 1 39.54 67.8z" fill="#3e2723" fill-opacity=".15"/><g clip-path="url(#a)"><path d="m8 184h83.77l38.88-38.88v-29.12h-69.29l-53.36-91.52z" fill="#0f9d58"/><path d="m8 184h83.77l38.88-38.88v-29.12h-69.29l-53.36-91.52z" fill="url(#c)"/></g><path clip-path="url(#a)" d="m129.84 117.33-.83-.48-38.39 67.15h1.15l38.1-66.64z" fill="#263238" fill-opacity=".15"/><g clip-path="url(#a)"><g clip-path="url(#d)"><path d="m96 56 34.65 60-38.88 68h92.23v-128z" fill="#ffcd40"/><path d="m96 56 34.65 60-38.88 68h92.23v-128z" fill="url(#e)"/></g></g><g clip-path="url(#a)"><path d="m96 56 34.65 60-38.88 68h92.23v-128z" fill="#ffcd40"/><path d="m96 56 34.65 60-38.88 68h92.23v-128z" fill="url(#e)"/></g><g clip-path="url(#a)"><g clip-path="url(#f)"><path d="m21.97 8v108h39.39l34.64-60h88v-48z" fill="#db4437"/><path d="m21.97 8v108h39.39l34.64-60h88v-48z" fill="url(#b)"/></g></g><path clip-path="url(#a)" d="m96 56v20.95l78.4-20.95z" fill="url(#h)"/><g clip-path="url(#a)"><g clip-path="url(#i)"><path d="m8 184h83.77l38.88-38.88v-29.12h-69.29l-53.36-91.52z" fill="#0f9d58"/><path d="m8 184h83.77l38.88-38.88v-29.12h-69.29l-53.36-91.52z" fill="url(#c)"/></g></g><path clip-path="url(#a)" d="m21.97 48.45 57.25 57.24-17.86 10.31z" fill="url(#j)"/><path clip-path="url(#a)" d="m91.83 183.89 20.96-78.2 17.86 10.31z" fill="url(#k)"/><g clip-path="url(#a)"><circle cx="96" cy="96" fill="#f1f1f1" r="40"/><circle cx="96" cy="96" fill="#4285f4" r="32"/></g><g clip-path="url(#a)"><path d="m96 55c-22.09 0-40 17.91-40 40v1c0-22.09 17.91-40 40-40h88v-1z" fill="#3e2723" fill-opacity=".2"/><path d="m130.6 116c-6.92 11.94-19.81 20-34.6 20-14.8 0-27.69-8.06-34.61-20h-.04l-53.35-91.52v1l53.36 91.52h.04c6.92 11.94 19.81 20 34.61 20 14.79 0 27.68-8.05 34.6-20h.05v-1z" fill="#fff" fill-opacity=".1"/><path d="m97 56c-.17 0-.33.02-.5.03 21.86.27 39.5 18.05 39.5 39.97s-17.64 39.7-39.5 39.97c.17 0 .33.03.5.03 22.09 0 40-17.91 40-40s-17.91-40-40-40z" fill="#3e2723" opacity=".1"/><path d="m131 117.33c3.4-5.88 5.37-12.68 5.37-19.96 0-4.22-.66-8.28-1.87-12.09.95 3.42 1.5 7.01 1.5 10.73 0 7.28-1.97 14.08-5.37 19.96l.02.04-38.88 68h1.16l38.09-66.64z" fill="#fff" fill-opacity=".2"/></g><g clip-path="url(#a)"><path d="m96 9c48.43 0 87.72 39.13 87.99 87.5 0-.17.01-.33.01-.5 0-48.6-39.4-88-88-88s-88 39.4-88 88c0 .17.01.33.01.5.27-48.37 39.56-87.5 87.99-87.5z" fill="#fff" fill-opacity=".2"/><path d="m96 183c48.43 0 87.72-39.13 87.99-87.5 0 .17.01.33.01.5 0 48.6-39.4 88-88 88s-88-39.4-88-88c0-.17.01-.33.01-.5.27 48.37 39.56 87.5 87.99 87.5z" fill="#3e2723" fill-opacity=".15"/></g><circle cx="96" cy="96" fill="url(#l)" r="88"/><path d="m0 0h192v192h-192z" fill="none"/></svg>

<svg xmlns="http://www.w3.org/2000/svg" xmlns:xlink="http://www.w3.org/1999/xlink" width="48" height="48" viewBox="0 0 192 192"><defs><circle id="a" cx="96" cy="96" r="88"/></defs><clipPath id="b"><use xlink:href="#a" overflow="visible"/></clipPath><g clip-path="url(#b)"><path fill="#DB4437" d="M21.97 8v108h39.39L96 56h88V8z"/><linearGradient id="c" gradientUnits="userSpaceOnUse" x1="29.337" y1="75.021" x2="81.837" y2="44.354"><stop offset="0" stop-color="#a52714" stop-opacity=".6"/><stop offset=".66" stop-color="#a52714" stop-opacity="0"/></linearGradient><path fill="url(#c)" d="M21.97 8v108h39.39L96 56h88V8z"/></g><path clip-path="url(#b)" fill="#3E2723" fill-opacity=".15" d="M62.31 115.65 22.48 47.34l-.58 1 39.54 67.8z"/><g clip-path="url(#b)"><path fill="#0F9D58" d="M8 184h83.77l38.88-38.88V116H61.36L8 24.48z"/><linearGradient id="d" gradientUnits="userSpaceOnUse" x1="110.872" y1="164.495" x2="52.538" y2="130.329"><stop offset="0" stop-color="#055524" stop-opacity=".4"/><stop offset=".33" stop-color="#055524" stop-opacity="0"/></linearGradient><path fill="url(#d)" d="M8 184h83.77l38.88-38.88V116H61.36L8 24.48z"/></g><path clip-path="url(#b)" fill="#263238" fill-opacity=".15" d="m129.84 117.33-.83-.48L90.62 184h1.15l38.1-66.64z"/><g clip-path="url(#b)"><defs><path id="e" d="M8 184h83.77l38.88-38.88V116H61.36L8 24.48z"/></defs><clipPath id="f"><use xlink:href="#e" overflow="visible"/></clipPath><g clip-path="url(#f)"><path fill="#FFCD40" d="m96 56 34.65 60-38.88 68H184V56z"/><linearGradient id="g" gradientUnits="userSpaceOnUse" x1="121.858" y1="49.804" x2="136.547" y2="114.13"><stop offset="0" stop-color="#ea6100" stop-opacity=".3"/><stop offset=".66" stop-color="#ea6100" stop-opacity="0"/></linearGradient><path fill="url(#g)" d="m96 56 34.65 60-38.88 68H184V56z"/></g></g><g clip-path="url(#b)"><path fill="#FFCD40" d="m96 56 34.65 60-38.88 68H184V56z"/><linearGradient id="h" gradientUnits="userSpaceOnUse" x1="121.858" y1="49.804" x2="136.547" y2="114.13"><stop offset="0" stop-color="#ea6100" stop-opacity=".3"/><stop offset=".66" stop-color="#ea6100" stop-opacity="0"/></linearGradient><path fill="url(#h)" d="m96 56 34.65 60-38.88 68H184V56z"/></g><g clip-path="url(#b)"><defs><path id="i" d="m96 56 34.65 60-38.88 68H184V56z"/></defs><clipPath id="j"><use xlink:href="#i" overflow="visible"/></clipPath><g clip-path="url(#j)"><path fill="#DB4437" d="M21.97 8v108h39.39L96 56h88V8z"/><linearGradient id="k" gradientUnits="userSpaceOnUse" x1="29.337" y1="75.021" x2="81.837" y2="44.354"><stop offset="0" stop-color="#a52714" stop-opacity=".6"/><stop offset=".66" stop-color="#a52714" stop-opacity="0"/></linearGradient><path fill="url(#k)" d="M21.97 8v108h39.39L96 56h88V8z"/></g></g><radialGradient id="l" cx="668.176" cy="55.948" r="84.078" gradientTransform="translate(-576)" gradientUnits="userSpaceOnUse"><stop offset="0" stop-color="#3e2723" stop-opacity=".2"/><stop offset="1" stop-color="#3e2723" stop-opacity="0"/></radialGradient><path clip-path="url(#b)" fill="url(#l)" d="M96 56v20.95L174.4 56z"/><g clip-path="url(#b)"><defs><path id="m" d="M21.97 8v40.34L61.36 116 96 56h88V8z"/></defs><clipPath id="n"><use xlink:href="#m" overflow="visible"/></clipPath><g clip-path="url(#n)"><path fill="#0F9D58" d="M8 184h83.77l38.88-38.88V116H61.36L8 24.48z"/><linearGradient id="o" gradientUnits="userSpaceOnUse" x1="110.872" y1="164.495" x2="52.538" y2="130.329"><stop offset="0" stop-color="#055524" stop-opacity=".4"/><stop offset=".33" stop-color="#055524" stop-opacity="0"/></linearGradient><path fill="url(#o)" d="M8 184h83.77l38.88-38.88V116H61.36L8 24.48z"/></g></g><radialGradient id="p" cx="597.875" cy="48.52" r="78.044" gradientTransform="translate(-576)" gradientUnits="userSpaceOnUse"><stop offset="0" stop-color="#3e2723" stop-opacity=".2"/><stop offset="1" stop-color="#3e2723" stop-opacity="0"/></radialGradient><path clip-path="url(#b)" fill="url(#p)" d="m21.97 48.45 57.25 57.24L61.36 116z"/><radialGradient id="q" cx="671.844" cy="96.138" r="87.87" gradientTransform="translate(-576)" gradientUnits="userSpaceOnUse"><stop offset="0" stop-color="#263238" stop-opacity=".2"/><stop offset="1" stop-color="#263238" stop-opacity="0"/></radialGradient><path clip-path="url(#b)" fill="url(#q)" d="m91.83 183.89 20.96-78.2L130.65 116z"/><g clip-path="url(#b)"><circle fill="#F1F1F1" cx="96" cy="96" r="40"/><circle fill="#4285F4" cx="96" cy="96" r="32"/></g><g clip-path="url(#b)"><path fill="#3E2723" fill-opacity=".2" d="M96 55c-22.09 0-40 17.91-40 40v1c0-22.09 17.91-40 40-40h88v-1H96z"/><path fill="#FFF" fill-opacity=".1" d="M130.6 116c-6.92 11.94-19.81 20-34.6 20-14.8 0-27.69-8.06-34.61-20h-.04L8 24.48v1L61.36 117h.04c6.92 11.94 19.81 20 34.61 20 14.79 0 27.68-8.05 34.6-20h.05v-1h-.06z"/><path opacity=".1" fill="#3E2723" d="M97 56c-.17 0-.33.02-.5.03C118.36 56.3 136 74.08 136 96s-17.64 39.7-39.5 39.97c.17 0 .33.03.5.03 22.09 0 40-17.91 40-40s-17.91-40-40-40z"/><path fill="#FFF" fill-opacity=".2" d="M131 117.33c3.4-5.88 5.37-12.68 5.37-19.96 0-4.22-.66-8.28-1.87-12.09.95 3.42 1.5 7.01 1.5 10.73 0 7.28-1.97 14.08-5.37 19.96l.02.04-38.88 68h1.16l38.09-66.64-.02-.04z"/></g><g clip-path="url(#b)"><path fill="#FFF" fill-opacity=".2" d="M96 9c48.43 0 87.72 39.13 87.99 87.5 0-.17.01-.33.01-.5 0-48.6-39.4-88-88-88S8 47.4 8 96c0 .17.01.33.01.5C8.28 48.13 47.57 9 96 9z"/><path fill="#3E2723" fill-opacity=".15" d="M96 183c48.43 0 87.72-39.13 87.99-87.5 0 .17.01.33.01.5 0 48.6-39.4 88-88 88S8 144.6 8 96c0-.17.01-.33.01-.5C8.28 143.87 47.57 183 96 183z"/></g><radialGradient id="r" cx="34.286" cy="32.014" r="176.746" gradientUnits="userSpaceOnUse"><stop offset="0" stop-color="#fff" stop-opacity=".1"/><stop offset="1" stop-color="#fff" stop-opacity="0"/></radialGradient><circle fill="url(#r)" cx="96" cy="96" r="88"/><path fill="none" d="M0 0h192v192H0z"/></svg>
